public/images/projects/callout-icons/tip.svg

<svg width="24" height="24" viewBox="0 0 24 24" fill="none" xmlns="http://www.w3.org/2000/svg">
<path d="M8.39014 18.4902V8.33022C8.39014 7.93022 8.51014 7.54022 8.73014 7.21022L11.4601 3.15022C11.8901 2.50022 12.9601 2.04022 13.8701 2.38022C14.8501 2.71022 15.5001 3.81022 15.2901 4.79022L14.7701 8.06022C14.7301 8.36022 14.8101 8.63022 14.9801 8.84022C15.1501 9.03022 15.4001 9.15022 15.6701 9.15022H19.7801C20.5701 9.15022 21.2501 9.47022 21.6501 10.0302C22.0301 10.5702 22.1001 11.2702 21.8501 11.9802L19.3901 19.4702C19.0801 20.7102 17.7301 21.7202 16.3901 21.7202H12.4901C11.8201 21.7202 10.8801 21.4902 10.4501 21.0602L9.17014 20.0702C8.68014 19.7002 8.39014 19.1102 8.39014 18.4902Z" fill="black"/>
<path d="M5.21 6.37988H4.18C2.63 6.37988 2 6.97988 2 8.45988V18.5199C2 19.9999 2.63 20.5999 4.18 20.5999H5.21C6.76 20.5999 7.39 19.9999 7.39 18.5199V8.45988C7.39 6.97988 6.76 6.37988 5.21 6.37988Z" fill="black"/>
</svg>

<svg xmlns="http://www.w3.org/2000/svg" width="24" height="24" fill="none" viewBox="0 0 24 24"><path fill="#000" d="M8.39 18.49V8.33c0-.4.12-.79.34-1.12l2.73-4.06c.43-.65 1.5-1.11 2.41-.77.98.33 1.63 1.43 1.42 2.41l-.52 3.27c-.04.3.04.57.21.78.17.19.42.31.69.31h4.11c.79 0 1.47.32 1.87.88.38.54.45 1.24.2 1.95l-2.46 7.49c-.31 1.24-1.66 2.25-3 2.25h-3.9c-.67 0-1.61-.23-2.04-.66l-1.28-.99c-.49-.37-.78-.96-.78-1.58M5.21 6.38H4.18C2.63 6.38 2 6.98 2 8.46v10.06c0 1.48.63 2.08 2.18 2.08h1.03c1.55 0 2.18-.6 2.18-2.08V8.46c0-1.48-.63-2.08-2.18-2.08"/></svg>
